public/assets/js.svg

<?xml version="1.0" encoding="UTF-8"?>
<!DOCTYPE svg  PUBLIC '-//W3C//DTD SVG 1.1//EN'  'http://www.w3.org/Graphics/SVG/1.1/DTD/svg11.dtd'>
<svg version="1.1" viewBox="0 0 195 201" xmlns="http://www.w3.org/2000/svg" xmlns:xlink="http://www.w3.org/1999/xlink">
<defs>
<path id="a" d="m97.5 201l95.17-49.79v-99.57l-95.17-49.78-95.17 49.78v99.57l95.17 49.79z"/>
<path id="b" d="m449.75 9.08l95.17-49.79v-99.57l-95.17-49.78-95.17 49.78v99.57l95.17 49.79z"/>
<path id="e" d="m268.98 241.48l0.99 0.2 0.97 0.26 0.93 0.33 0.9 0.4 0.87 0.46 0.82 0.53 0.78 0.58 0.73 0.63 0.69 0.68 0.63 0.74 0.58 0.78 0.52 0.82 0.47 0.86 0.4 0.9 0.33 0.94 0.26 0.96 0.19 1 0.12 1.01 0.04 1.05-0.02 0.79-0.07 0.78-0.12 0.77-0.16 0.75-0.2 0.74-0.24 0.72-0.28 0.7-0.33 0.68-0.35 0.66-0.4 0.64-0.43 0.61-0.46 0.58-0.49 0.56-0.53 0.53-0.55 0.5-0.58 0.47-0.61 0.44-0.63 0.4-0.65 0.37-0.68 0.33-0.7 0.3v9.92l-0.01 0.38-0.05 0.38-0.07 0.37-0.1 0.36-0.13 0.34-0.15 0.34-0.17 0.32-0.2 0.31-0.21 0.29-0.24 0.27-0.26 0.26-0.27 0.24-0.3 0.22-0.3 0.19-0.33 0.18-0.33 0.15-0.35 0.12-0.36 0.1-0.37 0.08-0.37 0.04-0.39 0.02-0.38-0.02-0.38-0.04-0.37-0.08-0.36-0.1-0.35-0.12-0.33-0.15-0.32-0.18-0.31-0.19-0.29-0.22-0.28-0.24-0.25-0.26-0.24-0.27-0.22-0.29-0.2-0.31-0.17-0.32-0.15-0.34-0.13-0.34-0.1-0.36-0.07-0.37-0.04-0.38-0.02-0.38v-9.92l-0.68-0.3-0.65-0.33-0.64-0.37-0.62-0.4-0.59-0.44-0.56-0.47-0.54-0.5-0.51-0.53-0.49-0.56-0.45-0.58-0.41-0.61-0.39-0.64-0.34-0.66-0.31-0.68-0.27-0.7-0.23-0.72-0.19-0.74-0.14-0.75-0.1-0.77-0.05-0.78v-0.79l0.04-1.05 0.12-1.01 0.19-1 0.26-0.96 0.34-0.94 0.4-0.9 0.46-0.86 0.52-0.82 0.58-0.78 0.63-0.74 0.69-0.68 0.73-0.63 0.78-0.58 0.83-0.53 0.86-0.46 0.9-0.4 0.93-0.33 0.97-0.26 0.99-0.2 1.02-0.11 1.04-0.04 1.04 0.04 1.02 0.11zm-4.91 6.78l-1.17 0.63-1.02 0.84-0.83 1.01-0.63 1.17-0.4 1.3-0.14 1.4 0.14 1.39 0.4 1.3 0.63 1.17 0.83 1.02 1.02 0.83 1.17 0.63 1.29 0.4 1.4 0.14 1.4-0.14 1.3-0.4 1.17-0.63 1.01-0.83 0.84-1.02 0.63-1.17 0.39-1.3 0.14-1.39-0.14-1.4-0.39-1.3-0.63-1.17-0.84-1.01-1.01-0.84-1.17-0.63-1.3-0.4-1.4-0.13-1.4 0.13-1.29 0.4z"/>
<path id="d" d="m121.62 139.32c-13.3 0-24.12-10.82-24.12-24.12 0-1.48 1.2-2.68 2.68-2.68s2.68 1.2 2.68 2.68c0 10.34 8.42 18.76 18.76 18.76s18.76-8.42 18.76-18.76c0-10.35-8.42-18.76-18.76-18.76-13.3 0-24.12-10.82-24.12-24.12s10.82-24.12 24.12-24.12 24.12 10.82 24.12 24.12c0 1.48-1.2 2.68-2.68 2.68s-2.68-1.2-2.68-2.68c0-10.35-8.42-18.76-18.76-18.76s-18.76 8.41-18.76 18.76c0 10.34 8.42 18.76 18.76 18.76 13.3 0 24.12 10.82 24.12 24.12s-10.82 24.12-24.12 24.12"/>
<path id="c" d="m57.84 140.33c-13.3 0-24.12-10.82-24.12-24.12 0-1.48 1.2-2.68 2.68-2.68s2.68 1.2 2.68 2.68c0 10.34 8.42 18.76 18.76 18.76s18.76-8.42 18.76-18.76v-64.32c0-1.48 1.2-2.68 2.68-2.68s2.68 1.2 2.68 2.68v64.32c0 13.3-10.82 24.12-24.12 24.12"/>
</defs>
<use fill="#000000" fill-opacity="0" xlink:href="#a"/>
<use fill-opacity="0" stroke="#00c7fc" xlink:href="#a"/>
<use fill="#000000" fill-opacity="0" xlink:href="#b"/>
<use fill-opacity="0" stroke="#000000" stroke-opacity="0" xlink:href="#b"/>
<use fill="#ffffff" fill-opacity="0" xlink:href="#e"/>
<use fill-opacity="0" stroke="#000000" stroke-opacity="0" xlink:href="#e"/>
<use fill="#000000" xlink:href="#bjKGNJpth"/>
<use fill-opacity="0" stroke="#000000" stroke-opacity="0" xlink:href="#bjKGNJpth"/>
<use fill="#ffffff" xlink:href="#d"/>
<use fill-opacity="0" stroke="#000000" stroke-opacity="0" xlink:href="#d"/>
<use fill="#ffffff" xlink:href="#c"/>
<use fill-opacity="0" stroke="#000000" stroke-opacity="0" xlink:href="#c"/>
</svg>

<?xml version="1.0" encoding="UTF-8" standalone="no"?>
<!DOCTYPE svg PUBLIC "-//W3C//DTD SVG 1.1//EN" "http://www.w3.org/Graphics/SVG/1.1/DTD/svg11.dtd">
<svg version="1.1" xmlns="http://www.w3.org/2000/svg" xmlns:xlink="http://www.w3.org/1999/xlink" preserveAspectRatio="xMidYMid meet" viewBox="0 0 195 201" width="195" height="201"><defs><path d="M97.5 201L192.67 151.21L192.67 51.64L97.5 1.86L2.33 51.64L2.33 151.21L97.5 201Z" id="g4uBZ59Faa"></path><path d="M449.75 9.08L544.92 -40.71L544.92 -140.28L449.75 -190.06L354.58 -140.28L354.58 -40.71L449.75 9.08Z" id="buQONLojg"></path><path d="M268.98 241.48L269.97 241.68L270.94 241.94L271.87 242.27L272.77 242.67L273.64 243.13L274.46 243.66L275.24 244.24L275.97 244.87L276.66 245.55L277.29 246.29L277.87 247.07L278.39 247.89L278.86 248.75L279.26 249.65L279.59 250.59L279.85 251.55L280.04 252.55L280.16 253.56L280.2 254.61L280.18 255.4L280.11 256.18L279.99 256.95L279.83 257.7L279.63 258.44L279.39 259.16L279.11 259.86L278.78 260.54L278.43 261.2L278.03 261.84L277.6 262.45L277.14 263.03L276.65 263.59L276.12 264.12L275.57 264.62L274.99 265.09L274.38 265.53L273.75 265.93L273.1 266.3L272.42 266.63L271.72 266.93L271.72 276.85L271.71 277.23L271.66 277.61L271.59 277.98L271.49 278.34L271.36 278.68L271.21 279.02L271.04 279.34L270.84 279.65L270.63 279.94L270.39 280.21L270.13 280.47L269.86 280.71L269.56 280.93L269.26 281.12L268.93 281.3L268.6 281.45L268.25 281.57L267.89 281.67L267.52 281.75L267.15 281.79L266.76 281.81L266.38 281.79L266 281.75L265.63 281.67L265.27 281.57L264.92 281.45L264.59 281.3L264.27 281.12L263.96 280.93L263.67 280.71L263.39 280.47L263.14 280.21L262.9 279.94L262.68 279.65L262.48 279.34L262.31 279.02L262.16 278.68L262.03 278.34L261.93 277.98L261.86 277.61L261.82 277.23L261.8 276.85L261.8 266.93L261.12 266.63L260.47 266.3L259.83 265.93L259.21 265.53L258.62 265.09L258.06 264.62L257.52 264.12L257.01 263.59L256.52 263.03L256.07 262.45L255.66 261.84L255.27 261.2L254.93 260.54L254.62 259.86L254.35 259.16L254.12 258.44L253.93 257.7L253.79 256.95L253.69 256.18L253.64 255.4L253.64 254.61L253.68 253.56L253.8 252.55L253.99 251.55L254.25 250.59L254.59 249.65L254.99 248.75L255.45 247.89L255.97 247.07L256.55 246.29L257.18 245.55L257.87 244.87L258.6 244.24L259.38 243.66L260.21 243.13L261.07 242.67L261.97 242.27L262.9 241.94L263.87 241.68L264.86 241.48L265.88 241.37L266.92 241.33L267.96 241.37L268.98 241.48ZM264.07 248.26L262.9 248.89L261.88 249.73L261.05 250.74L260.42 251.91L260.02 253.21L259.88 254.61L260.02 256L260.42 257.3L261.05 258.47L261.88 259.49L262.9 260.32L264.07 260.95L265.36 261.35L266.76 261.49L268.16 261.35L269.46 260.95L270.63 260.32L271.64 259.49L272.48 258.47L273.11 257.3L273.5 256L273.64 254.61L273.5 253.21L273.11 251.91L272.48 250.74L271.64 249.73L270.63 248.89L269.46 248.26L268.16 247.86L266.76 247.73L265.36 247.86L264.07 248.26Z" id="b2gyunjYy"></path><path d="" id="bjKGNJpth"></path><path d="M121.62 139.32C108.32 139.32 97.5 128.5 97.5 115.2C97.5 113.72 98.7 112.52 100.18 112.52C101.66 112.52 102.86 113.72 102.86 115.2C102.86 125.54 111.28 133.96 121.62 133.96C131.96 133.96 140.38 125.54 140.38 115.2C140.38 104.85 131.96 96.44 121.62 96.44C108.32 96.44 97.5 85.62 97.5 72.32C97.5 59.02 108.32 48.2 121.62 48.2C134.92 48.2 145.74 59.02 145.74 72.32C145.74 73.8 144.54 75 143.06 75C141.58 75 140.38 73.8 140.38 72.32C140.38 61.97 131.96 53.56 121.62 53.56C111.28 53.56 102.86 61.97 102.86 72.32C102.86 82.66 111.28 91.08 121.62 91.08C134.92 91.08 145.74 101.9 145.74 115.2C145.74 128.5 134.92 139.32 121.62 139.32" id="b89oJfVW"></path><path d="M57.84 140.33C44.54 140.33 33.72 129.51 33.72 116.21C33.72 114.73 34.92 113.53 36.4 113.53C37.88 113.53 39.08 114.73 39.08 116.21C39.08 126.55 47.5 134.97 57.84 134.97C68.18 134.97 76.6 126.55 76.6 116.21C76.6 109.78 76.6 58.32 76.6 51.89C76.6 50.41 77.8 49.21 79.28 49.21C80.76 49.21 81.96 50.41 81.96 51.89C81.96 58.32 81.96 109.78 81.96 116.21C81.96 129.51 71.14 140.33 57.84 140.33" id="bRGbU82Yz"></path></defs><g><g><g><use xlink:href="#g4uBZ59Faa" opacity="1" fill="#000000" fill-opacity="0"></use><g><use xlink:href="#g4uBZ59Faa" opacity="1" fill-opacity="0" stroke="#00c7fc" stroke-width="1" stroke-opacity="1"></use></g></g><g><use xlink:href="#buQONLojg" opacity="1" fill="#000000" fill-opacity="0"></use><g><use xlink:href="#buQONLojg" opacity="1" fill-opacity="0" stroke="#000000" stroke-width="1" stroke-opacity="0"></use></g></g><g><use xlink:href="#b2gyunjYy" opacity="1" fill="#ffffff" fill-opacity="0"></use><g><use xlink:href="#b2gyunjYy" opacity="1" fill-opacity="0" stroke="#000000" stroke-width="1" stroke-opacity="0"></use></g></g><g><use xlink:href="#bjKGNJpth" opacity="1" fill="#000000" fill-opacity="1"></use><g><use xlink:href="#bjKGNJpth" opacity="1" fill-opacity="0" stroke="#000000" stroke-width="1" stroke-opacity="0"></use></g></g><path></path><g><use xlink:href="#b89oJfVW" opacity="1" fill="#ffffff" fill-opacity="1"></use><g><use xlink:href="#b89oJfVW" opacity="1" fill-opacity="0" stroke="#000000" stroke-width="1" stroke-opacity="0"></use></g></g><g><use xlink:href="#bRGbU82Yz" opacity="1" fill="#ffffff" fill-opacity="1"></use><g><use xlink:href="#bRGbU82Yz" opacity="1" fill-opacity="0" stroke="#000000" stroke-width="1" stroke-opacity="0"></use></g></g></g></g></svg>
